icons/sd-card-line.svg

<svg viewBox="0 0 24 24" fill="currentColor" xmlns="http://www.w3.org/2000/svg"><path d="M6 7.82843V20H18V4H9.82843L6 7.82843ZM4.29289 6.70711L9 2H19C19.5523 2 20 2.44772 20 3V21C20 21.5523 19.5523 22 19 22H5C4.44772 22 4 21.5523 4 21V7.41421C4 7.149 4.10536 6.89464 4.29289 6.70711ZM15 5H17V9H15V5ZM12 5H14V9H12V5ZM9 6H11V9H9V6Z"/></svg>

<svg xmlns="http://www.w3.org/2000/svg" viewBox="0 0 24 24">
    <g>
        <path fill="none" d="M0 0h24v24H0z"/>
        <path d="M6 7.828V20h12V4H9.828L6 7.828zm-1.707-1.12L9 2h10a1 1 0 0 1 1 1v18a1 1 0 0 1-1 1H5a1 1 0 0 1-1-1V7.414a1 1 0 0 1 .293-.707zM15 5h2v4h-2V5zm-3 0h2v4h-2V5zM9 6h2v3H9V6z"/>
    </g>
</svg>
